X: 11
T:Saint Anne's Reel
M:C|
L:1/8
R:reel
Z:Originally French Canadian, now firmly adopted in Ireland. Madison.
K:D
de|"D"f2 fg fedB|A2F2F2A2|"G"B2G2G2B2|"D"B2A2A2 de|!
f2 fg fedB|"G"A2F2 "A"F2A2|"D"BGBd cdec|d4:|!
ag|"D"fdfa fdfa|"G"aggf g2ef|"A"gfed cdeg|"D"b2a2a2 ag|!
"D"fdfa fdfa|"G"aggf g2ef|"A"gfed cdeg|"D"f2 d2 d4:|!
